src/assets/icons/weeks,simple,02.svg

<svg width="48" height="48" viewBox="0 0 48 48" fill="none" xmlns="http://www.w3.org/2000/svg">
<rect opacity="0.2" x="5" y="5" width="38" height="38" rx="4" fill="black"/>
<path d="M5 13C5 9.22876 5 7.34315 6.17157 6.17157C7.34315 5 9.22876 5 13 5H35C38.7712 5 40.6569 5 41.8284 6.17157C43 7.34315 43 9.22876 43 13V15H5V13Z" fill="black"/>
<path d="M17.8562 38H30.2994V34.983H22.9698V34.8636L25.5181 32.3665C29.1062 29.0938 30.0692 27.4574 30.0692 25.4716C30.0692 22.446 27.5977 20.3068 23.8562 20.3068C20.1914 20.3068 17.6772 22.4972 17.6857 25.9233H21.1886C21.18 24.2528 22.2369 23.2301 23.8306 23.2301C25.3647 23.2301 26.5067 24.1847 26.5067 25.7188C26.5067 27.108 25.6545 28.0625 24.0692 29.5881L17.8562 35.3409V38Z" fill="black"/>
</svg>

<svg xmlns="http://www.w3.org/2000/svg" width="48" height="48" fill="none" viewBox="0 0 48 48">
  <rect width="38" height="38" x="5" y="5" fill="#000" opacity=".2" rx="4"/>
  <path fill="#000" d="M5 13c0-3.771 0-5.657 1.172-6.828C7.343 5 9.229 5 13 5h22c3.771 0 5.657 0 6.828 1.172C43 7.343 43 9.229 43 13v2H5v-2zM17.856 38H30.3v-3.017h-7.33v-.12l2.55-2.496c3.587-3.273 4.55-4.91 4.55-6.895 0-3.026-2.471-5.165-6.213-5.165-3.665 0-6.179 2.19-6.17 5.616h3.503c-.009-1.67 1.048-2.693 2.642-2.693 1.534 0 2.676.955 2.676 2.489 0 1.389-.853 2.343-2.438 3.87l-6.213 5.752V38z"/>
</svg>
